X:837
T:Reel 837
M:4/4
K:Dmaj
L:1/8
 (3AAA FA dBcdAF|GBAF GEEG|FAAc dedB|ABAG FDD2|d2Ac dcBA|G2FG EDBc|dcBc dcAc|dcAG FDD2|d2fd adfd|cded cABc|d2fd adfd| (3fga eg fdfd|d2fd adfd|cdef g2eg| (3fga  (3gfe fded| (3Bcd AG FDE2|
